X:1
T:Tristan und Isolde Act 2 Scene 3 (Vocal Score)
T:Tristan und Isolde Act 2 Scene 3 (Vocal Score)
T:"Tatest du's wirklich?"
T:WWV90, Richard Wagner
C:WWV90, Richard Wagner
%%score ( 1 2 ) { ( 3 4 7 ) | ( 5 6 8 ) }
L:1/8
Q:1/4=60
M:4/4
K:F
V:1 bass nm="Marke" snm="K. M."
V:2 bass 
V:3 bass nm="Piano" snm="Pno."
V:4 bass 
V:7 bass 
V:5 bass 
V:6 bass 
V:8 bass 
V:1
"^Mässig langsam" z8 | z8 | z8 |!p!"^\"Tatest du's wirklich?\"" A,2- A,/ D,/ D,{/F,} _E,2 D, z | %4
 B,3 _E, E, z z2 | z8 | z8 | z8 | z2 A,,4 G,2 | F,4- F, z F,2 | A,4- A, G, F,3/2 E,/ | %11
 E,2 ^D,2 z4 | z2 =B,,4 A,2 | G,4- G, z G,2 | =B,4- B, A, G,3/2 ^F,/ | ^F,2 E,2 z4 | z8 | %17
 z4 ^C,3 A, | A,3 G, F,3 E, | B,3 z G,3 ^F, | C6 =F,2 | _D3 C B,3 =A, | =D8- | D2 z2 z4 | z8 | %25
 z2 C,4 B,2 | =A,4 ^C,2 z2 | z2 D,4 C2 | =B,2 ^D,2 z D,2 C | C4- C =B, A,3/2 _A,/ | _A,4 G,2 z2 | %31
 z F,2 E, _E,2 B,2 | ^C,3 z"^poco rit."[Q:1/4=50] =E,3/2 D,/ C, D, || E,4[Q:1/4=128]"^Lebhaft" z4 | %34
 z8 | z8 |"^accel."[Q:1/4=136] z8[Q:1/4=138] | z8 | z8[Q:1/4=90] | z8[Q:1/4=80] | A,8 | %41
[Q:1/4=74] =B,,6 z2 |[Q:1/4=48]"^Sehr zurückhaltend\n \n" C4 =B,2 D, z | A,6- A,2 | %44
[Q:1/4=60]"^Etwas bewegter" z4 z _B, A, G, | G, F, z F, C4- | C2 B,2 z2 F, E, | %47
 _E,2 z2 z G, E, C, | A,,2 z C, A,3 G, | ^F,2 z F, A,3 G, | B,3 A, C4- | C z G,2 D4- | %52
 D4 E,"^riten."[Q:1/4=52] z _E, D, | ^C,4[Q:1/4=60] z2 A,2 | A,4 D,2 E, F, | %55
 G,3/2 A,/ B,2 z B, A, G, |[Q:1/4=52]"^Breit" _E3 D C3 B, | %57
 A,4 z"^rallent."[Q:1/4=48] A, A,3/2 A,/ | C6[Q:1/4=46] B,2 | C,4 z2 C,2 | %60
[Q:1/4=42] _G,4 A,,2 _D,3/2 C,/ ||[Q:1/4=60]"^Wieder mässig \nlangsam" B,,2 z2 z4 | z8 | z8 | z8 | %65
 z8 | z8 | z8 | z8 | z2 A,2- A, A,2 G, | E,2 F,2 C3 B, |[Q:1/4=72]"^Belebend" C,2 z _E, A,3 G, | %72
 ^F,2 z D, B,3 A, | ^G,2 z G, A,4 | A,2 =G,2 =F,3 G, | A,2 z A, B,3[Q:1/4=80]"^Mehr Belebend" _E, | %76
 =E,4 C3 F, | ^F,2 (3A, B, C D =B, G, =F, | E,2 _E,2 D,4- | D,2 C,2 C3 _E, | _E,2 D,2 z4 | z8 | %82
 z2 A,4 A, G, | E, F, C B, A,2 z G, | E, F, B,3/2 A,/ ^F, G, C3/2 B,/ | ^G,A, =B, C C3 E, | %86
 A,6 G, F, | E,4 z4 | z2 C2 C3/2 =B,/ A,2 | G,2 z2 G,3 ^F, | E,4 z4 | z2 C2 C3 _B, | %92
 C, D, _E, ^F, G,3 A, | B,3 D, F,3 _E, | _E,2 D, z z4 | %95
[Q:1/4=74]"^Belebt" z B, B, _A, ^F, G, G,3/2 =F,/ | =E,2 z E, (E,2 C) _B, | %97
 ^G, A, A,3/2 =G,/ (G,^F,) z A, | D3/2 =B,/ G, =F, F, _E, z D, | ^C,2 =E,2 A,3 G, | %100
 E,2 F, z z D, C B, | C, _E, A,3/2 G,/ ^F, z/ D,/ B, A, | ^G, z/ E,/ C3/2 =B,/ B, A, D2- | %103
 D C =B,3/2 A,/ A, G, z F, | E,2 A, G, F,2 z B, | G,2 z B, A, B, C3/2 _E,/ | D,2 z _E, =E,3 B, | %107
 G,2 _A, z A,3/2 =A,/ B, C | _D2 z2 z2 C2 | C2 F, z G,3 _A, | _A,2 =B,,2 z2 G,2 | %111
 C2 _B, _A, G,2 ^F,2 |[Q:1/4=80]"^Belebend" G,3 B, _A,3 z | =A,2 A, C =B,3 D | C3 _E D2 z D | %115
 D2 =A, _B, C3 A, | B,4[Q:1/4=78] z2 A,2 | %117
[Q:1/4=74] ^G,2 z[Q:1/4=70] E,[Q:1/4=64]{/=G,} F,2 z[Q:1/4=62] E, || %118
[K:D][Q:1/4=60]"^Viel langsamer" A,2 z2 z4 | z8 | z8 | z2 (F,2 F, G, ^G,3/2 ^A,,/ | B,,4) z4 | %123
 z2 (^G,2 A, G, ^D,3/2 F,/) | E,2 z2 (C,2 ^D,3/2 ^E,/ | F,2 C, z F,3 ^^F, | ^^F,2 ^G, z G,3 G, | %127
 (B,2 =A,) z (A,2 B,) C | C2 ^D,) z z F,- (3F,A, C | =D4- D D, F,3/2 E,/ | ^B,,2 C, z z2 A, =G, | %131
 E, =F, G, A, _B,3 _E, | ^C, D, z2 z2 A, A, | _B,4 =C A, =F,3/2 _E,/ | D,2 A,, z z2 (=E, D, | %135
 =B,3 G, F,3 E, | =C3 A, F, z E, D, | D3 B, G,3 A, | B,6 E,) z | z C, B,2 z G,/ E,/ C2 | %140
 z E, ^G,/A,/ B,/ C/ (E D3) | z8 ||[K:F] z8 | z8 | z8 | z8 | z8 | z2 _E,2 z2 D, _D, | %148
 C,2 =D,3/2 =E,/ F,3 C | z8 |] %150
V:2
 x8 | x8 | x8 | x8 | x8 | x8 | x8 | x8 | x8 | x8 | x8 | x8 | x8 | x8 | x8 | x8 | x8 | x8 | x8 | %19
 x8 | x8 | x8 | x8 | x8 | x8 | x8 | x8 | x8 | x8 | x8 | x8 | x8 | x8 || x8 | x8 | x8 | x8 | x8 | %38
 x2"^rallent." x2 x4 | x8 | x8 | x8 | x8 | x8 | x8 | x8 | x8 | x8 | x8 | x8 | x8 | x8 | x8 | x8 | %54
 x8 | x8 | x8 | x8 | x8 | x8 | x8 || x8 | x8 | x8 | x8 | x8 | x8 | x8 | x8 | x8 | x8 | x8 | x8 | %73
 x8 | x8 | x8 | x8 | x8 | x8 | x8 | x8 | x8 | x8 | x8 | x8 | x8 | x8 | x8 | x8 | x8 | x8 | x8 | %92
 x8 | x8 | x8 | x8 | x8 | x8 | x8 | x8 | x8 | x8 | x8 | x8 | x8 | x8 | x8 | x8 | x8 | x8 | x8 | %111
 x8 | x8 | x8 | x8 | x8 | x8 | x8 ||[K:D] x8 | x8 | x8 | x8 | x8 | x8 | x8 | x8 | x8 | x8 | x8 | %129
 x8 | x8 | x8 | x8 | x8 | x8 | x8 | x8 | x8 | x8 | x8 | x8 | x8 ||[K:F] x8 | x8 | x8 | x8 | x8 | %147
 x8 | x8 | x8 |] %150
V:3
!f!!f! !>!A,8- |!<(! A,4-!<)!!f!!>(! (A,G,F,>E,!>)! |"_dim." E,4 _E,4 |!p! D,4) z4 | %4
!p!!<(! (B,4- B,A,G,>F,!<)! |"_cresc." F,4 =E,3 _E,) |!f! (_E,4-"_dim." E,D,/E,/ (3G,F,E, | %7
!>(! _E,4 D,3 ^C,-!>)! |!p! =E,6- E,) z | z4!p! (^C,4 | [D,A,]6) z2 | z8 | z4 [^D,A,]3 z | %13
 z4!p! (^D,4 | [E,=B,]6) z2 | z8 | z8 |!p! [^C,G,A,-]8 |"_cresc." A,3 G, F,3 E, | B,3 A, G,3 ^F, | %20
 C3 B, A,3 G, |"_cresc." (_D3 C B,3 =A,) |!ff! !>!D8- | D4- D[I:staff +1]^C=C>=B, | %24
[I:staff -1] z8 |!p! (!>!C,4 B,4 |!p!!<(!"_cresc." A,4-!<)! A,G,F,>E,) | (D,4 C4 | %28
!p!!<(! =B,4-!<)! B,A,G,>^F,) | (E,4 [^G,D]4) |!f! (!>!=E8 |!p! [=F,_B,=F]2) z2 [_E,B,]2 z2 | %32
 z2!p! .[=E,B,^C]2 .[F,=B,]2 z2 || z4!<(! !///-!E2 E,2!<)! | ([G,E]2!p! G,)!<(!.A, ._B,2 z2!<)! | %35
[K:treble] ([B,G]2!p! B,).C!<(! ._D2 z2!<)! | ([_D_AB]2!p!"_cresc." D)._E ([_FB_d]2 G)._A | %37
!f! ([GB=e]2 B).=B ([cegc']2 [Gg]).[Aa] |!ff! [_Bdf_b]2"_dim." [DF]/B/[DF]/B/ !//-![^D^F]2 =B2 | %39
 !//-![E^G]2 c2 !//-![EA]2 ^c2 | !//-![_EA]2 _d2 [EA]/c/[EA]/c/ [EA]/c/[EA]/^c/ | %41
!p! !///-![=D^G]2 =e2!p! !///-![DG]2 e2 |!pp! !///-![D^G]2 e2- [DGe]!>(! z z C!>)! | %43
!p! (^D4- [DA-]4 |!pp! [EA]6- [EA]) z | z2!p! [F,DF]2 z4 | z8 |[K:bass] z2!p! [C,G,]2 z4 | z8 | %49
 z2"_cresc." [^F,A,]2 z4 | z8 | [G,C]3 z z4 |[K:treble]!f!!>(! [G,B,DG]4- [G,B,DG]!>)! z z2 | %53
[K:bass] z4!p! [^C,E,A,]3 z | [D,F,A,]4 z4 | z4"_cresc." [D,B,]2 z2 |!f! [G,B,_E]6- [G,B,E] z | %57
 z2"_dim." [A,C]6 | (C6 B,2) | z4!p! [_E,G,]3 z | z2!p! [_E,A,]4 z2 || z2!p! (B,4- B,_A, | %62
 F,2 _G,2 _D3 _C | _D,8) | z2 (^C4-!<(! C=B, | ^G,2 A,2 =E3 =D!<)! |!f! ^C3 =B,- B,A,G,^F,- | %67
!>(! ^F,3 =F,- F,3 E,) | (E,4 _E,3 D,)!>)! |!p! (D,4 ^C,2) z2 |!p! z4 (^F,4 | G,4) z4 | %72
 z2"_cresc." [C,^F,]4 z2 | z2 ^G,2 z2 (A,2 | D6) z2 |!p! z (A,G,F,-"_cresc." F,E, _E,2 | %76
 D,)DC=B,- B,A,G,F, | D7 D | (C4- C^G,A,=B, |!f! D2 C2) z4 |!f! z2!>(! (D4- DC!>)! | %81
"_dim." A,2 B,2 F3 _E |!p! D2 ^C4) z2 | E,F,CB, z (A,2 G, | E,F,B,>A,)"_cresc." (^F,G,C>B, | %85
 ^G,A,=B,C- CA,!mp!B,C |!>(! E_EDC- C2 =B,2)!>)! |!p!!<(! z2 (!>!E4-!<)! ED |!p! =B,2 C2) z4 | %89
 z2!p! (.[G,E]2 z2 .[A,^D]2) |!<(! z2 (!>!E4-!<)!!>(! ED!>)! |"_cresc." =B,2 (C4-) C_B, | %92
 ^F,2 G,2) z2!mf! [G,B,]2 | z2"_dim." [F,B,]2 z2 [A,C]2 |!<(! z2 (D4- DC!<)! | %95
!p! A, B,2 _A,) (^F,"_cresc." G,2 =F,) | (=E, E2 D) (=B, C2 _B,) | ^G, A,2 =G,- G,^F,-B,A,- | %98
!f! [=F,D]3 z z2"_dim." .G, z |!p! z2!<(! (A,4- A,G, | E,2 F,2 C3 B,)!<)! | %101
!p! z (A,2 G,)"_cresc." z (B,2 A,) | z (C2 =B,) z (A,B,C |!mf! D4) z!p! (G,2 F, | %104
 C,).C"_cresc." (F,2 D,).D B,2 | z (B,CD!f! _E2) z2 |!>(! z2 C3 G,C-B,-!>)! |!p! C4 [_G,C]4 | %108
 z2!f! [F,_A,_D]4 z2 |!p! [F,_A,C]4 z4 | z4!mf! [F,=B,D]2 z2 |!f! z4!>(! z3/2 [C,C]/ ([C,C]2!>)! | %112
!p! [_E,G,]) z/ [G,_E]/ [E,B,]2 z3/2 [_A,F]/ [F,D]2 | %113
 z3/2[K:treble]"_cresc." [=A,G]/ [G,_E]2 z3/2 [=B,G]/ [G,F]2 | %114
 z3/2 [C_A]/ [_A,_E]2 z3/2 [Dc]/ [CA]>c |!f! [CD=Ad]4- [CDAd] z z2 | %116
[K:bass]!p! .[G,B,]2 z2"^rall." .[F,A,]2 z2 | .[E,^G,]2 z2 z4 ||[K:D][K:treble] z2!p!!<(! (A4 A2- | %119
 A2!<)!!>(! A6- | A2 A4 A!>)!^G | ^E2 F2!<(! d3 c!<)! | c2 (B4-) B^A |!<(! ^^F2 ^G2 e3 ^d!<)! | %124
!>(! ^d c3-)!>)! c z!<(! x2!<)! |!p! B,2- B,!<(! ^A,2 C2 ^^F,!<)! | %126
!p!!<(!"_cresc." (^A,2- A, ^G,2 E2 G,)!<)! | (B,2- B, =A,2 F2 A,) |"_cresc." (C4- C^B, (3CFA) | %129
!f!!>(! [B,=DB]4- [B,DB]!>)! z z2 | z[K:bass]!pp! (^B,,C,E, G,_B,A,G, | E,=F,G,A, _B,D,F,_E, | %132
!<(! ^C,D,F,A, =C_EDC | _B,F,A,G,!<)!!p!!>(! =F,E,_E,=C,)!>)! |!p! (A,,D,F,A,-!<(! =C^CED)!<)! | %135
[K:treble]!p! (B3 G F3 E- |"_cresc." =c3 A F2 ED-) | (d3 B G3 A | B8) |!f! [C=GB]4!f! [EGc]4 | %140
!f! [E^Gd]8 |!f! [FAd]2 z2"_dim." [G,C]2 z2 ||[K:F]!f! z2[K:bass] ([D,D]6- |"_dim." D4- D3 C | %144
!p! A,2 B,2- B,A,G,>F,) |!<(! (F,4 E,3 _E,!<)! |!>(! _E,4- E,D,/E,/ (3G,F,E,!>)! | %147
"_dim." _E,4 D,3 _D, |!p!!<(! C,4) C,4!<)! | z8 |] %150
V:4
 z/4 F,/4!>(!D/4F,/4D/4F,/4D/4F,/4 !///-!D2 F,2-!>)!!p! [F,D] z | x8 | x8 | x8 | x8 | x8 | x8 | %7
 x8 | C,6- C, x | x8 | x8 | x8 | x8 | x8 | x8 | x8 | x8 | x8 | D,8 | _E,8 | =F,8 | _G,8 | %22
 !///-!_A,3 F,3- [F,A,] z | x8 | x8 | x4 =E,4 | G,8 | D,4 ^F,4 | A,8 | %29
 (E,6[I:staff +1] =F,/E,/^D,/E,/) |[I:staff -1] [=E,_A,]4 =G,3 ^F, | x8 | x8 || x8 | x8 | %35
[K:treble] x8 | x8 | x8 | x8 | x8 | x8 | x8 | x8 | A,7 ^G, | =G,6- G, x | x8 | x8 |[K:bass] x8 | %48
 x8 | x8 | x8 | x8 |[K:treble] x8 |[K:bass] x8 | x8 | x8 | x8 | x2 (G,4 _G,2 | F,8) | x8 | x8 || %61
 x8 | x4 [_E,=G,]4 | x8 | ^C,8 | ^F,4 F,4 | x8 | x8 | x8 | x8 | (D,8 | _E,4) x4 | x8 | x8 | x8 | %75
 x8 | x7 A, | (^F,G, (3A,B,C D=B,G,=F,) | x8 | G,4 x4 | x2 D,2- [D,-^F,]4 | [D,G,]4 G,4- | %82
 G,4- G, (A,2 G, | x4 A,) z E,2 | x8 | x8 | x4 (^F, =F,3 | E,) z z2!>(! ^G,4!>)! | A,2 z2 x4 | x8 | %90
 x6 =B,2 | A,4 F,4 | _E,4 x4 | x8 | x8 | x8 | z2 =B,2 A,2 x2 | x6 F,2 | A,2 G, x5 | x6 E,2 | %100
 x4 [D,^F,]4 | z2 [C,_E,]2 z2 [C,^F,]2 | z2 [D,^G,]2 x4 | A,4 x4 | x6 ^F,2 | G,4 A,2 x2 | %106
 z D,2 _E, =E,4 | [G,B,]2"_cresc." _A,6 | x8 | x8 | x8 | x8 | x8 | x3/2[K:treble] x13/2 | x8 | x8 | %116
[K:bass] x8 | x8 ||[K:D][K:treble] x8 | x8 | x8 | x4 =E4 | D2 x6 | x4 ^F4 | E2!pp! C4- CB, | %125
 =E,2 x6 | x8 | x8 | A,4 x4 | x8 | x[K:bass] x7 | x8 | x8 | x8 | x4 [F,A,=C]4 |[K:treble] B,4 B,4 | %136
 [=CE]4 D2[I:staff +1] F,2 |[I:staff -1] D4 ^C2 D2 | ([A,^D]4 =D2) (3B,DF | x8 | x8 | x8 || %142
[K:F] x2[K:bass] x6 | D,8 | [D,G,]4 x4 | x8 | x8 | x8 | x8 | x8 |] %150
V:5
!ped! !///-!=B,,,3 =B,,3- [B,,,B,,]!ped-up! z | z8 | z8 | [C,^F,A,]4 z4 | %4
!ped! !///-![G,,B,,] _E, !arpeggio![G,,B,,E,]!ped-up! z z4 | z8 | z8 | z8 | z8 | z4 ([B,,F,]4 | %10
 [=B,,F,]6) z2 |!p!!<(! (C,4- C,=B,,A,,>G,,)!<)! |!>(! (G,,4 ^F,,3)!>)! z | z4 ([C,G,]4 | %14
 [^C,G,]6) z2 |!p!!<(! (G,,4- G,,^F,,E,,>_E,,)!<)! |!>(! (_E,,4 D,,3!>)! ^C,,) | ([=E,,A,,]8 | %18
 F,,8 | G,,8 | A,,8 | B,,6- B,,>[I:staff -1]=D) | %22
!ped![I:staff +1] !///-!=B,,,3 =B,,3 [B,,,B,,]!ped-up! z | x8 |"_dim." =B,4 _B,3 =A, | %25
 ([_E,_A,]4 [G,,C,]4 | [=E,,^C,]8) | ([F,B,]4 [A,,D,]4 | [^F,,^D,]8) | ([G,C]4 E,,4) | %30
 [^C,,_B,,]8 | B,,2 z2 G,,2 z2 | z2 .G,,2 .[^G,,D,]2 z2 || z8 | %34
 !//-![_B,,D,]2 E,2!ped! ([A,,D,F,]2 B,,).C,!ped-up! | %35
 !//-![_D,F,]2 G,2!ped! ([C,F,_A,]2 _D,)._E,!ped-up! | !//-![_F,_A,]2 B,2 !//-![_E,G,]2 B,2 | %37
 !//-![_D,G,]2 B,2 !//-![_B,,=E,]2 G,2 | ([=A,,,=A,,]6 [^G,,,^G,,]2) | %39
 ([=G,,,=G,,]6 [^F,,,^F,,]2) | [=F,,,=F,,]8 | z2!<(! (=B,,4- B,,C)!<)! | %42
!f!!ped! !>!C4!ped-up!!ped! =B,3 z!ped-up! | (=B,,6 C,2 | [E,,^C,]6- [E,,C,]) z | z2 [D,,D,]2 z4 | %46
 z8 | z2 _E,,2 z4 | z8 | z2 [D,,D,]2 z4 | z8 | [_E,,_E,]3 z z4 | [=E,,=E,]4- [E,,E,] z z2 | %53
 z4 G,,3 z | F,,4 z4 | z4 G,,2 z2 | [_E,,_B,,_E,]6- [E,,B,,E,] z | z2 (_E,,6 | [D,,D,]8) | %59
 z4 [_E,,C,]3 z | z2 [F,,C,]4 z2 ||!p! (_G,,4 [F,,B,,D,]4 | [_E,,B,,_E,]4 [_C,,_C,]4 | %63
 [_F,,_A,,]4) z4 | (=E,,4 ^E,,4 | ^C,4 ^A,,4 | [=G,,=B,,E,]4- [G,,B,,E,]) z z2 | z8 | z8 | z8 | %70
 (D,,4 [_B,,,_B,,]4 | _E,,4) z4 | z2 D,,4 z2 | z2 [E,,=B,,D,]2 z2 ^C,2 | D,6 z2 | F,,4 G,,4 | %76
 z2 (E,2 F,2 C,2) | (D,2 ^F,2!ped! [=F,A,]2) z2!ped-up! | E,2 _E,2 D,4 | G,,4 z4 | (^F,,4 A,,4 | %81
 G,,4 =B,,2 C,2) | A,,4 E,4 | D,4 ^C,2 A,,2 | D,4 z2 (C,2- | C,^C,D,^D, E,3 A,) | %86
 (G,^F,=F,E, _E, D,3) | ^G,,4 E,4- | E,4 z4 | z2 (.=B,,2 z2 .B,,2) | z2 E,6 | E,4 D,4 | %92
 C,4 z2 [=E,,C,]2 | z2 [F,,D,]2 z2 [F,,_E,]2 | z2 D,3[I:staff -1] _E,=E,^F, | %95
 G,2[I:staff +1] D,2 _E,2 [F,,_D,]2 | [G,,C,]2 E,4 [C,E,]2 | F,2 [G,,_E,]2 [A,,D,]2 C,2 | %98
 [=B,,,=B,,]3 z z2 ._E,, z | (=E,,4 [^C,,^C,]4 | [D,,D,]4 [B,,,B,,]4 | _E,,3) z E,,3 z | %102
 =E,,4 z C,D,E, | C,4 z2 =B,,2 | E,2 ^C,2 F,2 D,2 | _E,2 D,2 C,2 z2 | z4 C,4 | =F,4 _E,4 | %108
 z2 [_D,,_D,]4 z2 | =D,4 z4 | z4 G,,2 z2 | ([_A,,,_A,,]4 [=A,,,=A,,]4) | %112
 [B,,,B,,]3!ped! z [=B,,,=B,,]3!ped! z | [C,,C,]3!ped! z!ped-up! [D,,D,]3!ped! z!ped-up! | %114
 [_E,,_E,]3!ped! z!ped-up! [F,,F,]3!ped! z!ped-up! | [^F,,^F,]4- [F,,F,] z z2 | %116
 .[G,,D,]2 z2 .[A,,D,]2 z2 | .[=B,,D,]2 z2 z2 .[E,,E,] z ||[K:D] [A,,,A,,]2 z2 z4 |!pp! [C,,C,-]8 | %120
 ([C,^E,B,]8 |!ped! [D,,D,]2 [F,A,]2!ped-up!!ped! [F,,,F,,]2 [E,^A,]2!ped-up! | %122
!>(!!ped! [G,,,G,,]2 [D,B,]2!>)!!ped-up!!ped! [^D,,^D,]2 [^^F,C]2!ped-up! | %123
!ped! [E,,E,]2 [^G,B,]2!ped-up!!ped! [^G,,,^G,,]2 [F,^B,]2!ped-up! | %124
!ped! [A,,,A,,]2 E,2!ped-up!!ped! [^G,,,^G,,]2 [C,^E,]2)!ped-up! | %125
!ped! [F,,,F,,]2 (C,2 E,2 ^A,2)!ped-up! |!ped! [F,,,F,,]2 (B,,2 E,2 B,2)!ped-up! | %127
!ped! [F,,,F,,]2 (C,2 E,4)!ped-up! |!ped! (B,,^D,F,^G,!ped-up! A,G,A,C) | %129
!ped! [E,,^G,]4- [E,,G,]!ped-up! z z2 | A,,8- | (A,,4 G,,4) | (^F,,8 | G,,4 A,,4 | %134
 ^F,,4 [D,,D,]4) | D,4 D,4 | F,4 A,4 | G,4 B,4 | F,,B,,^D,F,[I:staff -1] A,[I:staff +1]^G,- G,2 | %139
 [E,=G,]4 [E,G,]4 | [B,,E,^G,]8 | [A,,,A,,]2 z2 [A,,E,]2 z2 ||[K:F] ([B,,,B,,]8- | %143
 [B,,,B,,]4 [A,,,A,,]4 |!ped! [G,,,G,,]/) G,,/4B,,/4G,,/4B,,/4G,,/4B,,/4 !///-!G,,3!ped-up! B,,3 | %145
 (!///-!G,,4 B,,4) | (!///-!G,,4 B,,4) | (!///-!G,,7/2 B,,7/2 G,,/) z/ | (B,,6 _A,,2) | z8 |] %150
V:6
 x8 | x8 | x8 | x8 | x8 | x8 | x8 | x8 | x8 | x8 | x8 | x8 | x8 | x8 | x8 | x8 | x8 | x8 | x8 | %19
 x8 | x8 | x8 | x8 | x8 | x8 | x8 | x8 | x8 | x8 | x8 | x8 | D,,2 x6 | x8 || x8 | x8 | x8 | x8 | %37
 x8 | x8 | x8 | x8 | [=E,,,=E,,]8 | [E,^G,]7 x | F,,8 | x8 | x8 | x8 | x8 | x8 | x8 | x8 | x8 | %52
 x8 | x8 | x8 | x8 | x8 | x8 | x8 | x8 | x8 || x8 | x8 | x8 | x8 | ^F,,4 D,,4 | x8 | x8 | x8 | x8 | %70
 x8 | x8 | x8 | x6 (F,,2 | B,,6) x2 | x8 | ^G,,4 A,,4 | B,,4 =B,,4 | (^F,,6 =F,,2 | _E,,4) x4 | %80
 .^F,,,2 z2 .A,,,2 z2 | .G,,,2 z2 _E,,4 | (=E,,4 A,,4 | D,,4 E,,2 ^C,,2) | (D,,4 E,,4 | %85
 F,,4 ^F,,4 | G,,8) | x4 =B,,4 | A,,4 x4 | x8 | (C,4 ^G,,4 | A,,4 D,,4 | _E,,4) x4 | x8 | %94
 (^F,,2 G,,2 B,,2 A,,2 | G,,2 F,,2 _E,,2 _D,,2 | C,,2) (^G,,2 A,,2 =G,,2 | F,,2 _E,,2 D,,2 C,,2) | %98
 x8 | x8 | x8 | x8 | x8 | ^F,,4 x2 (G,,2 | ^G,,2 A,,2 B,,2) (D,,2 | _E,,2 =E,,2 F,,2) x2 | %106
 (^F,,4 G,,4 | =F,,4 _E,,4) | x8 | x8 | x8 | x8 | x3/2 x3/2 x x3/2 x3/2 x | %113
 x3/2 x3/2 x x3/2 x3/2 x | x3/2 x3/2 x x3/2 x3/2 x | x8 | x8 | x8 ||[K:D] x8 | x8 | x8 | x8 | x8 | %123
 x8 | x8 | x8 | x8 | x8 | F,,4 F,4 | x8 | x8 | x8 | x8 | x8 | x8 | G,,4 ^G,,4 | (A,,4 =C,4 | %137
 B,,4 E,4 | F,,4) E,,4 | A,,4 ^A,,4 | x8 | x8 ||[K:F] x8 | x8 | x8 | x8 | x8 | x8 | x8 | x8 |] %150
V:7
 x8 | x8 | x8 | x8 | x8 | x8 | x8 | x8 | x8 | x8 | x8 | x8 | x8 | x8 | x8 | x8 | x8 | x8 | x8 | %19
 x8 | x8 | x8 | x8 | x8 | x8 | x8 | x8 | x8 | x8 | x8 | x8 | x8 | x8 || x8 | x8 |[K:treble] x8 | %36
 x8 | x8 | x8 | x8 | x8 | x8 | x8 | x8 | x8 | x8 | x8 |[K:bass] x8 | x8 | x8 | x8 | x8 | %52
[K:treble] x8 |[K:bass] x8 | x8 | x8 | x8 | x8 | x8 | x8 | x8 || x8 | x8 | x8 | x4!p! ^G,4 | x8 | %66
 x8 | x8 | x8 | x8 | x8 | x8 | x8 | x8 | x8 | x8 | x8 | x8 | x8 | x8 | x8 | x8 | x8 | x8 | x8 | %85
 x8 | x8 | x8 | x8 | x8 | x8 | x8 | x8 | x8 | x8 | x8 | x8 | x8 | x8 | x8 | x8 | x8 | x8 | x8 | %104
 x8 | x8 | x8 | x8 | x8 | x8 | x8 | x8 | x8 | x3/2[K:treble] x13/2 | x8 | x8 |[K:bass] x8 | x8 || %118
[K:D][K:treble] x8 | x8 | x8 | x8 | x8 | x8 | x8 | x8 | x8 | x8 | x8 | x8 | x[K:bass] x7 | x8 | %132
 x8 | x8 | x8 |[K:treble] x8 | x8 | x8 | x8 | x8 | x8 | x8 ||[K:F] x2[K:bass] x6 | x4 ^F,4 | x8 | %145
 x8 | x8 | x8 | x8 | x8 |] %150
V:8
 x8 | x8 | x8 | x8 | x8 | x8 | x8 | x8 | x8 | x8 | x8 | x8 | x8 | x8 | x8 | x8 | x8 | x8 | x8 | %19
 x8 | x8 | x8 | x8 | x8 | x8 | x8 | x8 | x8 | x8 | x8 | x8 | x8 | x8 || x8 | x8 | x8 | x8 | x8 | %38
 x8 | x8 | x8 | x8 | x8 | x8 | x8 | x8 | x8 | x8 | x8 | x8 | x8 | x8 | x8 | x8 | x8 | x8 | x8 | %57
 x8 | x8 | x8 | x8 || x8 | x8 | x8 | x8 | x8 | x8 | x8 | x8 | x8 | x8 | x8 | x8 | x8 | x8 | x8 | %76
 x8 | x8 | x8 | x8 | x8 | x8 | x8 | x8 | x8 | x8 | C,4 x4 | x8 | x8 | x8 | x8 | x8 | x8 | x8 | x8 | %95
 x8 | x8 | x8 | x8 | x8 | x8 | x8 | x8 | x8 | x8 | x8 | x8 | x8 | x8 | x8 | x8 | x8 | x8 | x8 | %114
 x8 | x8 | x8 | x8 ||[K:D] x8 | x8 | x8 | x8 | x8 | x8 | x8 | x8 | x8 | x8 | x8 | x8 | x8 | x8 | %132
 x8 | x8 | x8 | x8 | x8 | x8 | x8 | x8 | x8 | x8 ||[K:F] x8 | x8 | x8 | x8 | x8 | x8 | x8 | x8 |] %150

